svgs/thin/signal-bars-weak.svg

<svg xmlns="http://www.w3.org/2000/svg" viewBox="0 0 576 512"><!--! Font Awesome Pro 6.3.0 by @fontawesome - https://fontawesome.com License - https://fontawesome.com/license (Commercial License) Copyright 2023 Fonticons, Inc. --><path d="M64 384H32c-17.62 0-32 14.38-32 32v64c0 17.62 14.38 32 32 32h32c17.62 0 32-14.38 32-32v-64C96 398.4 81.63 384 64 384zM80 480c0 8.822-7.178 16-16 16H32c-8.822 0-16-7.178-16-16v-64c0-8.822 7.178-16 16-16h32c8.822 0 16 7.178 16 16V480z"/></svg>

<svg xmlns="http://www.w3.org/2000/svg" viewBox="0 0 576 512"><!-- Font Awesome Pro 6.0.0-alpha2 by @fontawesome - https://fontawesome.com License - https://fontawesome.com/license (Commercial License) --><path d="M64 384H32C14.375 384 0 398.375 0 416V480C0 497.625 14.375 512 32 512H64C81.625 512 96 497.625 96 480V416C96 398.375 81.625 384 64 384ZM80 480C80 488.822 72.822 496 64 496H32C23.178 496 16 488.822 16 480V416C16 407.178 23.178 400 32 400H64C72.822 400 80 407.178 80 416V480Z"/></svg>
